src/assets/tiles/type6.svg

<?xml version="1.0" encoding="UTF-8"?>
<!DOCTYPE svg PUBLIC "-//W3C//DTD SVG 1.1//EN" "http://www.w3.org/Graphics/SVG/1.1/DTD/svg11.dtd">
<!-- Creator: CorelDRAW -->
<svg xmlns="http://www.w3.org/2000/svg" xml:space="preserve" width="25mm" height="25mm" style="shape-rendering:geometricPrecision; text-rendering:geometricPrecision; image-rendering:optimizeQuality; fill-rule:evenodd; clip-rule:evenodd"
viewBox="0 0 1.28983 1.28983"
 xmlns:xlink="http://www.w3.org/1999/xlink">
 <defs>
  <style type="text/css">
   <![CDATA[
    .fil2 {fill:teal}
    .fil0 {fill:gray}
    .fil1 {fill:#c6c6c6}
   ]]>
  </style>
 </defs>
 <g id="Layer_x0020_1">
  <metadata id="CorelCorpID_0Corel-Layer"/>
  <rect class="fil0" width="1.28983" height="1.28983"/>
  <rect class="fil1" x="0.0787382" y="0.0787382" width="1.21109" height="1.21109"/>
  <path class="fil2" d="M1.10479 0.807349l0 0.143914c0,0.0860056 -0.0663435,0.110755 -0.154707,0.110755l-0.538404 0c-0.0849995,0 -0.113494,-0.0511493 -0.113494,-0.102056l0 -0.00586097 -0.000598479 0 0 -0.311106 0.000242487 0 -4.12744e-005 -0.293817c-0.00161486,-0.0458198 0.033066,-0.0916447 0.104043,-0.0908038l0.626257 -0.00153231 9.28675e-005 0.0274372c0.00311106,0.102995 -0.00952924,0.132945 -0.0920265,0.135685l-0.39105 -0.00171805 -0.000407585 0.162049 0.40694 0.000789374c0.0851234,0.000165098 0.151797,0.0204721 0.152958,0.0985737 0.000474656,0.0322353 0.000196054,0.0977276 0.000196054,0.127693zm-0.563504 0.0963913l0.00226493 0 0.273691 0c0.0292275,0 0.0439779,-0.0143016 0.0439779,-0.031771l0 -0.102123c0,-0.0174694 -0.0147659,-0.0295112 -0.0439779,-0.0294751l-0.275956 0.000407585 0 0.162962z"/>
 </g>
</svg>

<svg xmlns="http://www.w3.org/2000/svg" xml:space="preserve" width="25mm" height="25mm" style="shape-rendering:geometricPrecision;text-rendering:geometricPrecision;image-rendering:optimizeQuality;fill-rule:evenodd;clip-rule:evenodd" viewBox="0 0 1.29 1.29"><path style="fill:gray" d="M0 0h1.29v1.29H0z"/><path style="fill:#c6c6c6" d="M.079.079H1.29V1.29H.079z"/><path d="M1.105.807v.144c0 .086-.067.111-.155.111H.412c-.085 0-.114-.051-.114-.102V.349C.296.303.33.258.402.26l.626-.002v.027c.003.103-.01.133-.092.136L.546.418.544.58l.407.001c.085 0 .151.02.153.099v.127zM.54.904h.276c.03 0 .044-.015.044-.032V.77C.861.752.846.74.817.74H.541v.164z" style="fill:teal"/></svg>
